X:194
T:Old Towler
O:No 194 Page 96 William Clarke of Feltwell
M:6/8
L:1/8
K:D
N: Note values adjusted in A: Bar 4 E cr changed to E qu, G cr changed to qu.
N:B : A cr changed to A qu in B bar 10
A|d2dB2G| F2GA2^c| B2 d ceg| f3 e G A|
d2 .d f2d|B2 B e2d| c2c BAB| A2 A2 z2:|
:A| e2c A2A|f2d A2d|c2d g2f| f3 e2 A| A^GA Bcd|
efg afd| B2 ed2c| d2 z2 DF| A3 A3 |A d2!fermata!d2 A|
AFA AFA| A d2 !fermata! d2 A/c/|e3 e3| ea2 a2 e|
ece ece| e g2!fermata!g2 a/g/| fd AFD f| ecA Eag| fd AFD f|
ecA A2 a|dff dff| d3 d3| dff dff| fa z2 !fermata!z A/G/F/E/|
D2G F2 B| A2gf2d| e2e dcd| d3 g3|
f2 f ede| a3 g3| f2 f ede| d z z z:||:

